src/images/searchicon.svg

<svg xmlns="http://www.w3.org/2000/svg" x="0px" y="0px" width="20" height="20" viewBox="0 0 48 48">
<path d="M 20.5 6 C 12.515556 6 6 12.515562 6 20.5 C 6 28.484438 12.515556 35 20.5 35 C 23.773158 35 26.788919 33.893018 29.220703 32.050781 L 38.585938 41.414062 A 2.0002 2.0002 0 1 0 41.414062 38.585938 L 32.050781 29.220703 C 33.893017 26.788918 35 23.773156 35 20.5 C 35 12.515562 28.484444 6 20.5 6 z M 20.5 10 C 26.322685 10 31 14.677319 31 20.5 C 31 23.295711 29.914065 25.820601 28.148438 27.697266 A 2.0002 2.0002 0 0 0 27.701172 28.144531 C 25.824103 29.912403 23.29771 31 20.5 31 C 14.677315 31 10 26.322681 10 20.5 C 10 14.677319 14.677315 10 20.5 10 z"></path>
</svg>

<svg xmlns="http://www.w3.org/2000/svg" x="0px" y="0px" width="20" height="20" viewBox="0,0,256,256">
<g fill="#ffffff" fill-rule="nonzero" stroke="none" stroke-width="1" stroke-linecap="butt" stroke-linejoin="miter" stroke-miterlimit="10" stroke-dasharray="" stroke-dashoffset="0" font-family="none" font-weight="none" font-size="none" text-anchor="none" style="mix-blend-mode: normal"><g transform="scale(5.33333,5.33333)"><path d="M20.5,6c-7.98444,0 -14.5,6.51556 -14.5,14.5c0,7.98444 6.51556,14.5 14.5,14.5c3.27316,0 6.28892,-1.10698 8.7207,-2.94922l9.36523,9.36328c0.50163,0.52248 1.24653,0.73295 1.94742,0.55024c0.70088,-0.18271 1.24823,-0.73006 1.43094,-1.43094c0.18271,-0.70088 -0.02776,-1.44578 -0.55024,-1.94742l-9.36328,-9.36523c1.84224,-2.43179 2.94922,-5.44755 2.94922,-8.7207c0,-7.98444 -6.51556,-14.5 -14.5,-14.5zM20.5,10c5.82269,0 10.5,4.67732 10.5,10.5c0,2.79571 -1.08593,5.3206 -2.85156,7.19727c-0.17187,0.12442 -0.32284,0.2754 -0.44727,0.44727c-1.87707,1.76787 -4.40346,2.85547 -7.20117,2.85547c-5.82268,0 -10.5,-4.67732 -10.5,-10.5c0,-5.82268 4.67732,-10.5 10.5,-10.5z"></path></g></g>
</svg>
